!!!OTL: GUTN ABEND JUNGFR RESL
!!!ARE: Europa, Mitteleuropa, Deutschland, Bayern, Landshut
!!!SCT: E1466A
!!!YEM: Copyright 1995, estate of Helmut Schaffrath.
**kern
*ICvox
*Ivox
*M3/4
*k[b-]
*F:
{4f
=1
4f
4b-
4b-
=2
4g
4b-}
{4a
=3
4a
8g
8g
4g
=4
4f
4r}
{4f
=5
4f
4b-
4b-
=6
4g
4b-}
{4a
=7
4a
4g
4g
=8
2f}
{4cc
=9
4cc
8dd
8b-
8g
8e
=10
2f}
==
!!!AGN: Staende -, Jaeger - Lied, Wilderer
!!!ONB: ESAC (Essen Associative Code) Database: ERK3
!!!AMT: simple triple
!!!AIN: vox
!!!EED: Helmut Schaffrath
!!!EEV: 1.0
*-
